images/what-icon.svg

<svg width="16" height="16" viewBox="0 0 16 16" fill="none" xmlns="http://www.w3.org/2000/svg">
<path d="M8.00066 1.33337C11.6827 1.33337 14.6673 4.31804 14.6673 8.00004C14.6673 11.682 11.6827 14.6667 8.00066 14.6667C6.82251 14.6686 5.6651 14.3568 4.64733 13.7634L1.33666 14.6667L2.23799 11.3547C1.64406 10.3366 1.33203 9.17871 1.33399 8.00004C1.33399 4.31804 4.31866 1.33337 8.00066 1.33337ZM5.72866 4.86671L5.59533 4.87204C5.50901 4.8773 5.42465 4.89998 5.34733 4.93871C5.27501 4.97966 5.20899 5.03086 5.15133 5.09071C5.07133 5.16604 5.02599 5.23137 4.97733 5.29471C4.73074 5.61531 4.59798 6.00892 4.59999 6.41337C4.60133 6.74004 4.68666 7.05804 4.81999 7.35537C5.09266 7.95671 5.54133 8.59337 6.13333 9.18337C6.27599 9.32537 6.41599 9.46804 6.56666 9.60071C7.30225 10.2484 8.17883 10.7154 9.12666 10.9647L9.50533 11.0227C9.62866 11.0294 9.75199 11.02 9.87599 11.014C10.0702 11.004 10.2597 10.9514 10.4313 10.86C10.5186 10.8151 10.6038 10.7661 10.6867 10.7134C10.6867 10.7134 10.7153 10.6947 10.77 10.6534C10.86 10.5867 10.9153 10.5394 10.99 10.4614C11.0453 10.404 11.0933 10.3367 11.13 10.26C11.182 10.1514 11.234 9.94404 11.2553 9.77137C11.2713 9.63937 11.2667 9.56737 11.2647 9.52271C11.262 9.45137 11.2027 9.37737 11.138 9.34604L10.75 9.17204C10.75 9.17204 10.17 8.91937 9.81533 8.75804C9.77821 8.74184 9.73845 8.73257 9.69799 8.73071C9.65238 8.72602 9.60629 8.73116 9.56283 8.74576C9.51936 8.76036 9.47953 8.7841 9.44599 8.81537C9.44266 8.81404 9.39799 8.85204 8.91599 9.43604C8.88833 9.47322 8.85022 9.50131 8.80653 9.51674C8.76284 9.53218 8.71554 9.53426 8.67066 9.52271C8.62723 9.51106 8.58468 9.49636 8.54333 9.47871C8.46066 9.44404 8.43199 9.43071 8.37533 9.40671C7.99271 9.23974 7.63845 9.01414 7.32533 8.73804C7.24133 8.66471 7.16333 8.58471 7.08333 8.50737C6.82105 8.25619 6.59248 7.97204 6.40333 7.66204L6.36399 7.59871C6.33574 7.55615 6.3129 7.51024 6.29599 7.46204C6.27066 7.36404 6.33666 7.28537 6.33666 7.28537C6.33666 7.28537 6.49866 7.10804 6.57399 7.01204C6.64733 6.91871 6.70933 6.82804 6.74933 6.76337C6.82799 6.63671 6.85266 6.50671 6.81133 6.40604C6.62466 5.95004 6.43133 5.49604 6.23266 5.04537C6.19333 4.95604 6.07666 4.89204 5.97066 4.87937C5.93466 4.87537 5.89866 4.87137 5.86266 4.86871C5.77313 4.86426 5.68342 4.86515 5.59399 4.87137L5.72866 4.86671Z" fill="#89725B"/>
</svg>

<svg xmlns="http://www.w3.org/2000/svg" width="16" height="16" fill="none"><path fill="#89725B" d="M8 1.333a6.666 6.666 0 1 1-3.353 12.43l-3.31.904.901-3.312A6.667 6.667 0 0 1 8.001 1.334ZM5.73 4.867l-.134.005a.64.64 0 0 0-.248.067.862.862 0 0 0-.196.152c-.08.075-.125.14-.174.204A1.82 1.82 0 0 0 4.6 6.413c.001.327.087.645.22.942.273.602.721 1.238 1.313 1.828.143.142.283.285.434.418a6.298 6.298 0 0 0 2.56 1.364l.378.058c.124.006.247-.003.371-.009.194-.01.384-.063.555-.154a3.23 3.23 0 0 0 .256-.147s.028-.018.083-.06c.09-.066.145-.114.22-.192a.768.768 0 0 0 .14-.201c.052-.109.104-.316.125-.489.016-.132.012-.204.01-.248-.003-.072-.062-.146-.127-.177l-.388-.174s-.58-.253-.935-.414a.331.331 0 0 0-.117-.027.321.321 0 0 0-.252.084c-.003-.001-.048.037-.53.621a.233.233 0 0 1-.245.087.954.954 0 0 1-.128-.044l-.168-.072a4.017 4.017 0 0 1-1.05-.669c-.084-.073-.162-.153-.242-.23a4.198 4.198 0 0 1-.68-.846l-.039-.063a.616.616 0 0 1-.068-.137c-.025-.098.04-.177.04-.177s.163-.177.238-.273c.073-.093.135-.184.175-.249.079-.126.104-.256.062-.357-.186-.456-.38-.91-.578-1.36-.04-.09-.156-.154-.262-.167-.036-.004-.072-.008-.108-.01a2.257 2.257 0 0 0-.269.002l.135-.004Z"/></svg>
